X: 11100
T: Duffy's Goat
R: jig
M: 6/8
K: Amajor
G#|~A3 Ece|fg#a ecA|~d3! cec|BAB cAF|
~E3 Ace|trill fea ecA|~d3! ecA|EG#B A2:|
aec fg#a|ecA B2 z|d3! cec|Bcd ef#g#|
a2 e fg#a|ecA B2 z|d3! ecA|EG#B A2:|

